X: 68
T: Aldın Aklım Ey Meh-veş
C: Rifat Bey (Sermüezzin, Miralay)
O: Turkey
F: http://compmusic.upf.edu/node/140
N: buselik--sarki--sofyan--aldin_aklim--rifat_bey
N: makam= buselik
N: form= sarki
N: usul= sofyan = 4/4
M: 4/4
L: 1/16
K: C    
Q: 1/4=60
%%MIDI tuningsystem comma53
A^GAB c2B2 A2G2 A2E2  | A^GAB c2B2 AGAf e2z2  | 
w:  ARANAĞME  |   | 
gfeg fedf edcd cBAB  | A2B2 c2B2 ABA2 e4  | 
w:   |   | 
d2c2 B2A2 cBA^G A2z2  | A^GAB c2B2 A2G2 A2E2  | \
w:   |  ARANAĞME  | 
A^GAB c2B2 AGAf e2z2  | 
w:   | 
gfeg fedf edcd cBAB  | A2B2 c2B2 ABA2 e4  | 
w:   |   | 
d2c2 B2A2 cBA^G A2z2  | B2c2 cdcB A4 ^G4  | \
w:   |  Al *  *  *  *  *  dın  ak  | 
A3B c2d2 de2d c2z2  | 
w:  lım   | 
^f2g2 gag=f fee^d cdef  | ^d2e2 e3/2g/fe e4 z4  | 
w:  ey  *  *  *  *  *  meh_ *  *  *  i   |  veş   *  SAZ  | 
e3a ^g2a2 gffe e4  | e2dc g2fe dfed cBc2  | 
w:  Nâz  *  *  *  et *  *  *  me   |  gel   | 
B2c2 cdcB BcBA cBA^G  | A4 ^GABG A3b a^ga2  | 
w:  o *  *  *  *  *  la *  *  *  lım   |  eş   SAZ  | 
^g2a2 agfe defg a2z2  | b2a^g a2gf g2fe e4  | 
w:  E *  *  *  *  *  le  *  *  *  gel  |  mez   | 
^f2g2 gagf fee^d cde=f  | ^d2e2 e^gfe e4 z4  | 
w:  böy *  *  *  *  *  le  *  *  *  dü  |  şeş   SAZ  | 
e3a ^g2a2 gffe e4  | e2dc g2fe dfed cBc2  | 
w:  Nâz  *  *  *  et *  *  *  me   |  gel   | 
B2c2 cdcB BcBA cBA^G  | A4 ^GABG A3e ^d2e2  | 
w:  o *  *  *  *  *  la *  *  *  lım   |  eş   SAZ  | 
^d3e e3=d c3B A4  | e2f4ef gagf e4  | \
w:  Kıl  *  *  *  mü *  rüv  |  vet   | 
efge fdec dcBA cBA^G  | 
w:  ol *  *  *  *  *  *  *  ma  *  *  *  ser  | 
A4 ^GABG A4 z4  | A^GAB c2B2 A2G2 A2E2  | \
w:  keş   SAZ  |  ARANAĞME  | 
A^GAB c2B2 AGAf e2z2  | 
w:   | 
gfeg fedf edcd cBAB  | A2B2 c2B2 ABA2 e4  | 
w:   |   | 
d2c2 B2A2 cBA^G A2z2  | A^GAB c2B2 A2G2 A2E2  | \
w:   |  ARANAĞME  | 
A^GAB c2B2 AGAf e2z2  | 
w:   | 
gfeg fedf edcd cBAB  | A2B2 c2B2 ABA2 e4  | 
w:   |   | 
d2c2 B2A2 cBA^G A2z2  | B2c2 cdcB A4 ^G4  | \
w:   |  Al *  *  *  *  *  dın  ak  | 
A3B c2d2 de2d c2z2  | 
w:  lım   | 
^f2g2 gag=f fee^d cdef  | ^d2e2 e3/2g/fe e4 z4  | 
w:  ey  *  *  *  *  *  meh_ *  *  *  i   |  veş   *  SAZ  | 
e3a ^g2a2 gffe e4  | e2dc g2fe dfed cBc2  | 
w:  Nâz  *  *  *  et *  *  *  me   |  gel   | 
B2c2 cdcB BcBA cBA^G  | A4 ^GABG A3b a^ga2  | 
w:  o *  *  *  *  *  la *  *  *  lım   |  eş   SAZ  | 
^g2a2 agfe defg a2z2  | b2a^g a2gf g2fe e4  | 
w:  E *  *  *  *  *  le  *  *  *  gel  |  mez   | 
^f2g2 gagf fee^d cde=f  | ^d2e2 e^gfe e4 z4  | 
w:  böy *  *  *  *  *  le  *  *  *  dü  |  şeş   SAZ  | 
e3a ^g2a2 gffe e4  | e2dc g2fe dfed cBc2  | 
w:  Nâz  *  *  *  et *  *  *  me   |  gel   | 
B2c2 cdcB BcBA cBA^G  | A4 ^GABG A3e ^d2e2  | 
w:  o *  *  *  *  *  la *  *  *  lım   |  eş   SAZ  | 
^d3e e3=d c3B A4  | e2f4ef gagf e4  | \
w:  Kıl  *  *  *  mü *  rüv  |  vet   | 
efge fdec dcBA cBA^G  | 
w:  ol *  *  *  *  *  *  *  ma  *  *  *  ser  | 
A4 ^GABG A4 z4  | |


